assets/img/partners/security-experience.svg

<svg width="509" height="644" viewBox="0 0 509 644" fill="none" xmlns="http://www.w3.org/2000/svg"><g clip-path="url(#clip0_2_3222)"><path d="M417.5 502C545.906 502 650 397.906 650 269.5S545.906 37 417.5 37 185 141.094 185 269.5 289.094 502 417.5 502z" stroke="url(#paint0_linear_2_3222)" stroke-width="15" stroke-miterlimit="10" style="mix-blend-mode:screen"/><path d="M414 460c106.039 0 192-86.409 192-193S520.039 74 414 74s-192 86.409-192 193 85.961 193 192 193z" stroke="url(#paint1_linear_2_3222)" stroke-width="15" stroke-miterlimit="10" style="mix-blend-mode:screen"/><path d="M410 415c83.395 0 151-67.605 151-151s-67.605-151-151-151-151 67.605-151 151 67.605 151 151 151z" stroke="url(#paint2_linear_2_3222)" stroke-width="15" stroke-miterlimit="10" style="mix-blend-mode:screen"/><path d="M165.5 400l7.5 4.747v9.5L165.5 419l-7.5-4.753v-9.5l7.5-4.747z" fill="#FFF0F3"/><path d="M140.12 335l5.88 10.025-5.123 10.503-10.997.472-5.88-10.004 5.118-10.503L140.12 335z" fill="#75B2DA" fill-opacity=".5"/><path d="M117 406l10 5.749v11.502L117 429l-10-5.749v-11.502L117 406z" fill="#00A2C4"/><path d="M188.96 502.076l4.04 12.995-9.46 9.929-13.5-3.076-4.04-12.995 9.471-9.929 13.489 3.076z" fill="#8FA9C9"/><path d="M328.352 581l8.648 7.814-2.352 11.5-11 3.686-8.648-7.814 2.357-11.5L328.352 581z" fill="#FFF0F3"/><path d="M261.505 584l9.997 1.639 3.498 9.003-6.5 7.358-10.002-1.634-3.498-9.003 6.505-7.363z" fill="#00BFE7"/><path opacity=".5" d="M330.201 555l8.006 1.459 2.793 7.986-5.196 6.555-8.005-1.459-2.799-7.992 5.201-6.549z" fill="#4D9CD0" fill-opacity=".5"/><path d="M86.474 559.581l15.5-3.581L113 566.916l-4.474 14.503-15.5 3.581L82 574.084l4.474-14.503z" fill="#0071BB"/><path d="M469.784 463.951L486.263 460 498 472.046l-4.784 15.998L476.737 492 465 479.954l4.784-16.003z" fill="#E21C3D"/><path d="M203.852 271l10.495.664 4.653 9-5.852 8.336-10.506-.643-4.642-9 5.852-8.357z" fill="#FFF0F3"/><path d="M432.068 407.736L454.557 403 470 419.775l-7.057 21.489-22.49 4.736L425 429.267l7.068-21.531z" fill="#EA7B85"/><path d="M436.484 390.528L455.971 389 467 405.47l-8.458 18.002L439.061 425 428 408.53l8.484-18.002z" fill="#00A2C4"/><path d="M154.457 498.728L164.488 496l7.512 6.775-2.474 9.497L159.523 515 152 508.225l2.457-9.497zM58.36 544.727L67.868 542 75 548.773l-2.36 9.5L63.138 561 56 554.227l2.36-9.5z" fill="#EA7B85"/><path d="M265 574.444L283.45 560l21.498 9.054L308 592.556 289.55 607l-21.503-9.054L265 574.444z" fill="#E21C3D"/><path d="M364.07 548l3.93 3.746-1.066 5.508-4.995 1.746-3.939-3.721 1.066-5.513L364.07 548z" fill="#CEDCED"/><path d="M117 376l14 8.515v16.97L117 410l-14-8.515v-16.986L117 376z" fill="#EA7B85"/><path d="M223.497 274L238 282.259v16.482L223.497 307 209 298.741v-16.497L223.497 274z" fill="#E21C3D"/><path opacity=".5" d="M119.49 309l6.51 4v8l-6.5 4-6.5-4v-8l6.49-4z" fill="#FFF0F3"/><path d="M77.003 363L82 365.499v5.002L77.003 373 72 370.501v-5.002L77.003 363z" fill="#E21C3D"/><path d="M136.646 360L152 374.243l-4.141 20.998-19.5 6.759L113 387.757l4.146-20.998 19.5-6.759z" fill="#FFF0F3"/><path d="M79.609 579.075l16-4.075L107 587.423l-4.645 16.502-16 4.075L75 595.577l4.609-16.502z" fill="#FFF0F2"/><path d="M54.229 513.528L73.263 512 84 528.472l-8.234 18L56.768 548 46 531.528l8.229-18z" fill="#E21C3D"/><path d="M78.869 486l18.995 5.219L103 510.711 89.126 525l-18.995-5.182L65 500.326 78.869 486z" fill="#fff" fill-opacity=".5"/><path d="M83.5 430l3.5 2.25v4.5L83.5 439l-3.5-2.25v-4.5l3.5-2.25z" fill="#00A2C4"/><path d="M388 305.282L398.173 299l10.498 5.712.329 12L398.827 323l-10.498-5.712-.329-12.006z" fill="#FFF0F2"/><path d="M315 272.67l6.287-3.67 6.513 3.328.2 7.002-6.287 3.67-6.513-3.328-.2-7.002z" fill="#CEDCED"/><path d="M367.722 281.098L387.725 274 404 287.394l-3.717 20.498L380.275 315 364 301.6l3.722-20.502z" fill="#00A2C4"/><path opacity=".5" d="M106.471 573.686l9.007-2.728 6.757 6.775L120 587.23l-8.998 2.728-6.767-6.77 2.236-9.502z" fill="#00A2C4"/><path d="M381.481 239l6.519 3.747v7.5L381.497 254 375 250.247v-7.5l6.481-3.747z" fill="#EA7B85"/><path d="M470.503 315l3.497 2v4l-3.497 2-3.503-2v-4l3.503-2z" fill="#205493"/><path d="M311.899 339l-72.374 42.9-.525 81.895L312.151 508 384 464.319v-83.462L311.899 339z" fill="url(#paint3_radial_2_3222)" style="mix-blend-mode:hard-light"/><g style="mix-blend-mode:overlay"><path style="mix-blend-mode:overlay" d="M239.333 462.864l.513-81.204 71.182 40.238.733 84.802-72.428-43.836z" fill="url(#paint4_linear_2_3222)"/><path d="M240.108 382.094l70.669 39.951.722 84.178-71.904-43.495.523-80.634h-.01zm-.513-.895L239.071 463l72.957 44.155-.738-85.419-71.716-40.537h.021z" fill="#FFF0F2"/></g><path d="M311.899 339l-72.374 42.9-.525 81.895L312.151 508 384 464.319v-83.462L311.899 339z" stroke="#00A2C4" stroke-width="2"/><path d="M312 343a4 4 0 100-8 4 4 0 000 8zm74 43a4 4 0 100-8 4 4 0 000 8zm0 82a4 4 0 100-8 4 4 0 000 8zm-146-82a4 4 0 100-8 4 4 0 000 8zm0 82a4 4 0 100-8 4 4 0 000 8zm72 42a4 4 0 100-8 4 4 0 000 8z" fill="#00A2C4"/><path d="M289.769 410.338l-82.753-47.778L311.292 303 414 362.56m0 0l-82.296 47.778M414 362.56v119.552M207 362.56v119.552m207 0l-82.296-48.445M414 482.112L311.292 541l-104.276-58.888 82.753-48.445" stroke="#00A2C4" stroke-width="2"/><path d="M311 311a6 6 0 100-12 6 6 0 000 12z" fill="#00A2C4"/><path d="M413.5 367a3.5 3.5 0 100-7 3.5 3.5 0 000 7z" fill="#00BFE7"/><path d="M413.5 484a3.5 3.5 0 100-7 3.5 3.5 0 000 7zm-206-117a3.5 3.5 0 100-7 3.5 3.5 0 000 7zm0 117a3.5 3.5 0 100-7 3.5 3.5 0 000 7zM311 545a6 6 0 100-12 6 6 0 000 12z" fill="#00A2C4"/><path d="M335.042 379H312v86c21.874-10.24 29.513-23.507 31.456-27.642a6.01 6.01 0 00.544-2.543V388.46c.002-2.503-.939-4.906-2.621-6.693a8.858 8.858 0 00-2.9-2.05 8.55 8.55 0 00-3.437-.717z" fill="#B51E23"/><path d="M287.503 379a9.719 9.719 0 00-3.663.735 9.573 9.573 0 00-3.095 2.058 9.348 9.348 0 00-2.051 3.065 9.185 9.185 0 00-.693 3.602v46.355c-.011.879.185 1.75.573 2.543 2.058 4.093 10.282 17.464 33.426 27.642v-86h-24.497z" fill="#E21D3E"/><path d="M315.768 416.629c1.39-1.286 2.4-3.03 2.894-4.995a11.325 11.325 0 00-.136-5.989c-.556-1.933-1.632-3.616-3.073-4.81-1.442-1.193-3.176-1.835-4.955-1.835s-3.514.642-4.955 1.835c-1.441 1.194-2.517 2.877-3.073 4.81a11.33 11.33 0 00-.128 5.993c.497 1.965 1.511 3.708 2.905 4.991l-2.805 18.563c2.638.524 5.311.791 7.988.797 2.725.064 5.45-.147 8.142-.631-.934-6.312-1.822-12.502-2.804-18.729z" fill="#fff"/></g><defs><linearGradient id="paint0_linear_2_3222" x1="177.162" y1="269.5" x2="657.838" y2="269.5"><stop stop-color="#0071BB"/><stop offset="1" stop-color="#B7DDE9"/></linearGradient><linearGradient id="paint1_linear_2_3222" x1="214.181" y1="267" x2="613.814" y2="267"><stop stop-color="#0071BB"/><stop offset="1" stop-color="#00A2C4"/></linearGradient><linearGradient id="paint2_linear_2_3222" x1="122623" y1="20724.5" x2="305355" y2="20724.5"><stop stop-color="#0071BB"/><stop offset="1" stop-color="#B7DDE9"/></linearGradient><linearGradient id="paint4_linear_2_3222" x1="239.333" y1="444.177" x2="311.761" y2="444.177"><stop stop-color="#fff" stop-opacity=".5"/><stop offset="1" stop-color="#FFF0F2"/></linearGradient><radialGradient id="paint3_radial_2_3222" cx="0" cy="0" r="1" gradientTransform="matrix(0 84.9335 -72.8721 0 310.435 421.27)"><stop stop-color="#fff"/><stop offset="1" stop-color="#FFF0F3"/></radialGradient><clipPath id="clip0_2_3222"><path fill="#fff" d="M0 0h509v644H0z"/></clipPath></defs></svg>

<svg width="509" height="644" viewBox="0 0 509 644" fill="none" xmlns="http://www.w3.org/2000/svg">
<g clip-path="url(#clip0_2_3222)">
<path d="M417.5 502C545.906 502 650 397.906 650 269.5C650 141.094 545.906 37 417.5 37C289.094 37 185 141.094 185 269.5C185 397.906 289.094 502 417.5 502Z" stroke="url(#paint0_linear_2_3222)" stroke-width="15" stroke-miterlimit="10" style="mix-blend-mode:screen"/>
<path d="M414 460C520.039 460 606 373.591 606 267C606 160.409 520.039 74 414 74C307.961 74 222 160.409 222 267C222 373.591 307.961 460 414 460Z" stroke="url(#paint1_linear_2_3222)" stroke-width="15" stroke-miterlimit="10" style="mix-blend-mode:screen"/>
<path d="M410 415C493.395 415 561 347.395 561 264C561 180.605 493.395 113 410 113C326.605 113 259 180.605 259 264C259 347.395 326.605 415 410 415Z" stroke="url(#paint2_linear_2_3222)" stroke-width="15" stroke-miterlimit="10" style="mix-blend-mode:screen"/>
<path d="M165.5 400L173 404.747V414.247L165.5 419L158 414.247V404.747L165.5 400Z" fill="#FFF0F3"/>
<path d="M140.12 335L146 345.025L140.877 355.528L129.88 356L124 345.996L129.118 335.493L140.12 335Z" fill="#75B2DA" fill-opacity="0.5"/>
<path d="M117 406L127 411.749V423.251L117 429L107 423.251V411.749L117 406Z" fill="#00A2C4"/>
<path d="M188.96 502.076L193 515.071L183.54 525L170.04 521.924L166 508.929L175.471 499L188.96 502.076Z" fill="#8FA9C9"/>
<path d="M328.352 581L337 588.814L334.648 600.314L323.648 604L315 596.186L317.357 584.686L328.352 581Z" fill="#FFF0F3"/>
<path d="M261.505 584L271.502 585.639L275 594.642L268.5 602L258.498 600.366L255 591.363L261.505 584Z" fill="#00BFE7"/>
<path opacity="0.5" d="M330.201 555L338.207 556.459L341 564.445L335.804 571L327.799 569.541L325 561.549L330.201 555Z" fill="#4D9CD0" fill-opacity="0.5"/>
<path d="M86.4739 559.581L101.974 556L113 566.916L108.526 581.419L93.0261 585L82 574.084L86.4739 559.581Z" fill="#0071BB"/>
<path d="M469.784 463.951L486.263 460L498 472.046L493.216 488.044L476.737 492L465 479.954L469.784 463.951Z" fill="#E21C3D"/>
<path d="M203.852 271L214.347 271.664L219 280.664L213.148 289L202.642 288.357L198 279.357L203.852 271Z" fill="#FFF0F3"/>
<path d="M432.068 407.736L454.557 403L470 419.775L462.943 441.264L440.453 446L425 429.267L432.068 407.736Z" fill="#EA7B85"/>
<path d="M436.484 390.528L455.971 389L467 405.47L458.542 423.472L439.061 425L428 408.53L436.484 390.528Z" fill="#00A2C4"/>
<path d="M154.457 498.728L164.488 496L172 502.775L169.526 512.272L159.523 515L152 508.225L154.457 498.728Z" fill="#EA7B85"/>
<path d="M58.3597 544.727L67.8677 542L75 548.773L72.6403 558.273L63.1376 561L56 554.227L58.3597 544.727Z" fill="#EA7B85"/>
<path d="M265 574.444L283.45 560L304.948 569.054L308 592.556L289.55 607L268.047 597.946L265 574.444Z" fill="#E21C3D"/>
<path d="M364.07 548L368 551.746L366.934 557.254L361.939 559L358 555.279L359.066 549.766L364.07 548Z" fill="#CEDCED"/>
<path d="M117 376L131 384.515V401.485L117 410L103 401.485V384.499L117 376Z" fill="#EA7B85"/>
<path d="M223.497 274L238 282.259V298.741L223.497 307L209 298.741V282.244L223.497 274Z" fill="#E21C3D"/>
<path opacity="0.5" d="M119.49 309L126 313V321L119.5 325L113 321V313L119.49 309Z" fill="#FFF0F3"/>
<path d="M77.0029 363L82 365.499V370.501L77.0029 373L72 370.501V365.499L77.0029 363Z" fill="#E21C3D"/>
<g style="mix-blend-mode:multiply">
<path d="M136.646 360L152 374.243L147.859 395.241L128.359 402L113 387.757L117.146 366.759L136.646 360Z" fill="#FFF0F3"/>
</g>
<path d="M79.609 579.075L95.609 575L107 587.423L102.355 603.925L86.3548 608L75 595.577L79.609 579.075Z" fill="#FFF0F2"/>
<path d="M54.2289 513.528L73.2626 512L84 528.472L75.7659 546.472L56.7685 548L46 531.528L54.2289 513.528Z" fill="#E21C3D"/>
<g style="mix-blend-mode:overlay">
<path d="M78.869 486L97.8639 491.219L103 510.711L89.1259 525L70.131 519.818L65 500.326L78.869 486Z" fill="white" fill-opacity="0.5"/>
</g>
<path d="M83.5 430L87 432.25V436.75L83.5 439L80 436.75V432.25L83.5 430Z" fill="#00A2C4"/>
<path d="M388 305.282L398.173 299L408.671 304.712L409 316.712L398.827 323L388.329 317.288L388 305.282Z" fill="#FFF0F2"/>
<path d="M315 272.67L321.287 269L327.8 272.328L328 279.33L321.713 283L315.2 279.672L315 272.67Z" fill="#CEDCED"/>
<g style="mix-blend-mode:multiply">
<path d="M367.722 281.098L387.725 274L404 287.394L400.283 307.892L380.275 315L364 301.6L367.722 281.098Z" fill="#00A2C4"/>
</g>
<path opacity="0.5" d="M106.471 573.686L115.478 570.958L122.235 577.733L120 587.23L111.002 589.958L104.235 583.188L106.471 573.686Z" fill="#00A2C4"/>
<path d="M381.481 239L388 242.747V250.247L381.497 254L375 250.247V242.747L381.481 239Z" fill="#EA7B85"/>
<path d="M470.503 315L474 317V321L470.503 323L467 321V317L470.503 315Z" fill="#205493"/>
<path d="M311.899 339L239.525 381.9L239 463.795L312.151 508L384 464.319V380.857L311.899 339Z" fill="url(#paint3_radial_2_3222)" style="mix-blend-mode:hard-light"/>
<g style="mix-blend-mode:overlay">
<path style="mix-blend-mode:overlay" d="M239.333 462.864L239.846 381.66L311.028 421.898L311.761 506.7L239.333 462.864Z" fill="url(#paint4_linear_2_3222)"/>
<g style="mix-blend-mode:overlay">
<path d="M240.108 382.094L310.777 422.045L311.499 506.223L239.595 462.728L240.118 382.094H240.108ZM239.595 381.199L239.071 463L312.028 507.155L311.29 421.736L239.574 381.199H239.595Z" fill="#FFF0F2"/>
</g>
</g>
<path d="M311.899 339L239.525 381.9L239 463.795L312.151 508L384 464.319V380.857L311.899 339Z" stroke="#00A2C4" stroke-width="2"/>
<path d="M312 343C314.209 343 316 341.209 316 339C316 336.791 314.209 335 312 335C309.791 335 308 336.791 308 339C308 341.209 309.791 343 312 343Z" fill="#00A2C4"/>
<path d="M386 386C388.209 386 390 384.209 390 382C390 379.791 388.209 378 386 378C383.791 378 382 379.791 382 382C382 384.209 383.791 386 386 386Z" fill="#00A2C4"/>
<path d="M386 468C388.209 468 390 466.209 390 464C390 461.791 388.209 460 386 460C383.791 460 382 461.791 382 464C382 466.209 383.791 468 386 468Z" fill="#00A2C4"/>
<path d="M240 386C242.209 386 244 384.209 244 382C244 379.791 242.209 378 240 378C237.791 378 236 379.791 236 382C236 384.209 237.791 386 240 386Z" fill="#00A2C4"/>
<path d="M240 468C242.209 468 244 466.209 244 464C244 461.791 242.209 460 240 460C237.791 460 236 461.791 236 464C236 466.209 237.791 468 240 468Z" fill="#00A2C4"/>
<path d="M312 510C314.209 510 316 508.209 316 506C316 503.791 314.209 502 312 502C309.791 502 308 503.791 308 506C308 508.209 309.791 510 312 510Z" fill="#00A2C4"/>
<path d="M289.769 410.338L207.016 362.56L311.292 303L414 362.56M414 362.56L331.704 410.338M414 362.56V482.112M207 362.56V482.112M414 482.112L331.704 433.667M414 482.112L311.292 541L207.016 482.112L289.769 433.667" stroke="#00A2C4" stroke-width="2"/>
<path d="M311 311C314.314 311 317 308.314 317 305C317 301.686 314.314 299 311 299C307.686 299 305 301.686 305 305C305 308.314 307.686 311 311 311Z" fill="#00A2C4"/>
<path d="M413.5 367C415.433 367 417 365.433 417 363.5C417 361.567 415.433 360 413.5 360C411.567 360 410 361.567 410 363.5C410 365.433 411.567 367 413.5 367Z" fill="#00BFE7"/>
<path d="M413.5 484C415.433 484 417 482.433 417 480.5C417 478.567 415.433 477 413.5 477C411.567 477 410 478.567 410 480.5C410 482.433 411.567 484 413.5 484Z" fill="#00A2C4"/>
<path d="M207.5 367C209.433 367 211 365.433 211 363.5C211 361.567 209.433 360 207.5 360C205.567 360 204 361.567 204 363.5C204 365.433 205.567 367 207.5 367Z" fill="#00A2C4"/>
<path d="M207.5 484C209.433 484 211 482.433 211 480.5C211 478.567 209.433 477 207.5 477C205.567 477 204 478.567 204 480.5C204 482.433 205.567 484 207.5 484Z" fill="#00A2C4"/>
<path d="M311 545C314.314 545 317 542.314 317 539C317 535.686 314.314 533 311 533C307.686 533 305 535.686 305 539C305 542.314 307.686 545 311 545Z" fill="#00A2C4"/>
<path d="M335.042 379H312V465C333.874 454.76 341.513 441.493 343.456 437.358C343.82 436.564 344.006 435.694 344 434.815V388.46C344.002 385.957 343.061 383.554 341.379 381.767C340.553 380.889 339.567 380.193 338.479 379.717C337.391 379.242 336.222 378.998 335.042 379Z" fill="#B51E23"/>
<path d="M287.503 379C286.245 379.006 284.999 379.256 283.84 379.735C282.68 380.215 281.628 380.914 280.745 381.793C279.862 382.672 279.165 383.714 278.694 384.858C278.223 386.002 277.987 387.226 278.001 388.46V434.815C277.99 435.694 278.186 436.565 278.574 437.358C280.632 441.451 288.856 454.822 312 465V379H287.503Z" fill="#E21D3E"/>
<path d="M315.768 416.629C317.158 415.343 318.168 413.599 318.662 411.634C319.155 409.669 319.108 407.578 318.526 405.645C317.97 403.712 316.894 402.029 315.453 400.835C314.011 399.642 312.277 399 310.498 399C308.719 399 306.984 399.642 305.543 400.835C304.102 402.029 303.026 403.712 302.47 405.645C301.89 407.58 301.846 409.673 302.342 411.638C302.839 413.603 303.853 415.346 305.247 416.629C304.312 422.818 303.377 429.006 302.442 435.192C305.08 435.716 307.753 435.983 310.43 435.989C313.155 436.053 315.88 435.842 318.572 435.358C317.638 429.046 316.75 422.856 315.768 416.629Z" fill="white"/>
</g>
<defs>
<linearGradient id="paint0_linear_2_3222" x1="177.162" y1="269.5" x2="657.838" y2="269.5" gradientUnits="userSpaceOnUse">
<stop stop-color="#0071BB"/>
<stop offset="1" stop-color="#B7DDE9"/>
</linearGradient>
<linearGradient id="paint1_linear_2_3222" x1="214.181" y1="267" x2="613.814" y2="267" gradientUnits="userSpaceOnUse">
<stop stop-color="#0071BB"/>
<stop offset="1" stop-color="#00A2C4"/>
</linearGradient>
<linearGradient id="paint2_linear_2_3222" x1="122623" y1="20724.5" x2="305355" y2="20724.5" gradientUnits="userSpaceOnUse">
<stop stop-color="#0071BB"/>
<stop offset="1" stop-color="#B7DDE9"/>
</linearGradient>
<radialGradient id="paint3_radial_2_3222" cx="0" cy="0" r="1" gradientUnits="userSpaceOnUse" gradientTransform="translate(310.464 421.161) rotate(90) scale(84.9335 72.8721)">
<stop stop-color="white"/>
<stop offset="1" stop-color="#FFF0F3"/>
</radialGradient>
<linearGradient id="paint4_linear_2_3222" x1="239.333" y1="444.177" x2="311.761" y2="444.177" gradientUnits="userSpaceOnUse">
<stop stop-color="white" stop-opacity="0.5"/>
<stop offset="1" stop-color="#FFF0F2"/>
</linearGradient>
<clipPath id="clip0_2_3222">
<rect width="509" height="644" fill="white"/>
</clipPath>
</defs>
</svg>
